X:212
T:Quick Step 71st Reg’t. RH.212
T:71st Reg’t.Quickstep. RH.212
R:quickstep
S:Rev.R.Harrison’s MS,c1815,Cumbria
O:England
A:Temple Sowerby,Cumbria
Z:vmp.Simon Wilson. Review PJH, 2008.
M:6/8
L:1/8
Q:3/8=110
K:D
dfd ecA|dfa gfe|dfd edc|ded d3:|\
|:AFA BGB|cBc ded|AFA BGB|cBc d3:|

